icons/shield-arrow-down-outline.svg

<svg xmlns="http://www.w3.org/2000/svg" width="24" height="24" viewBox="0 0 24 24">
  <path d="M12,1 C15.5169906,1 18.3742467,1.71431401 20.5547002,3.16794971 C20.8328989,3.35341548 21,3.66564681 21,4 L21,4 L21,12.9096249 C20.9981658,16.3441397 19.0497159,19.5919666 16.0272136,21.1044272 L16.0272136,21.1044272 L12.4472136,22.8944272 C12.1656861,23.0351909 11.8343139,23.0351909 11.5527864,22.8944272 L11.5527864,22.8944272 L7.97250014,21.104284 C4.95028406,19.5919666 3.00183418,16.3441397 3,12.9090909 L3,12.9090909 L3,4 C3,3.66564681 3.16710114,3.35341548 3.4452998,3.16794971 C5.62575334,1.71431401 8.48300939,1 12,1 Z M11.9999999,3 C9.15029309,3 6.85199016,3.50672557 5.09245014,4.5016552 L5.09245014,4.5016552 L4.99999986,4.555 L4.99999986,12.9085569 C5.00138724,15.5066311 6.43129904,17.976644 8.636365,19.1941391 L8.636365,19.1941391 L8.8672136,19.3155728 L11.9999999,20.881 L15.1325001,19.315716 C17.3905248,18.1858001 18.8956579,15.7647258 18.9947875,13.1773026 L18.9947875,13.1773026 L18.9999999,12.9090909 L18.9999999,4.556 L18.9075499,4.5016552 C17.2406172,3.55909028 15.0901411,3.0546919 12.4453733,3.00420832 L12.4453733,3.00420832 Z M12,8 C12.5522847,8 13,8.44771525 13,9 L13,9 L13,12.585 L14.2928932,11.2928932 L14.3871006,11.2097046 C14.7793918,10.9046797 15.3466228,10.9324093 15.7071068,11.2928932 C16.0976311,11.6834175 16.0976311,12.3165825 15.7071068,12.7071068 L15.7071068,12.7071068 L12.7071068,15.7071068 L12.625449,15.7803112 C12.6225624,15.7826279 12.6196628,15.7849289 12.6128994,15.7902954 C12.6070733,15.7948255 12.6012086,15.7992821 12.5951593,15.8036865 C12.5711307,15.8215099 12.546275,15.8382813 12.5207088,15.8540045 C12.5086131,15.8613931 12.4963944,15.8685012 12.484277,15.8751242 C12.4642939,15.8862061 12.4438914,15.8966234 12.4232215,15.9063266 L12.4232215,15.9063266 L12.3710585,15.928896 C12.3515792,15.9366843 12.3317977,15.9438775 12.3121425,15.9502619 C12.2968513,15.9552713 12.2814633,15.9599023 12.2658396,15.964279 C12.2444365,15.9701664 12.2227461,15.9753602 12.2007258,15.9797599 C12.1833753,15.9832978 12.165949,15.9863719 12.1489612,15.9889807 L12.1489612,15.9889807 L12.08,15.996 L12.044,15.998 L12.019,15.999 L12,16 C11.9935938,16 11.9872016,15.9999398 11.980824,15.9998198 L11.980824,15.9998198 L11.9409686,15.9982669 C11.9308872,15.9976744 11.9208131,15.99693 11.909968,15.996002 L11.909968,15.996002 L11.8515331,15.9889822 C11.834051,15.9863719 11.8166247,15.9832978 11.7992059,15.9798348 C11.7772539,15.9753602 11.7555635,15.9701664 11.734007,15.9641549 C11.7185367,15.9599023 11.7031487,15.9552713 11.6882636,15.9504533 C11.6682023,15.9438775 11.6484208,15.9366843 11.628664,15.9287745 L11.628664,15.9287745 L11.5769009,15.9063462 C11.5561086,15.8966234 11.5357061,15.8862061 11.5159379,15.8753288 L11.5159379,15.8753288 L11.4793398,15.8539326 C11.453725,15.8382813 11.4288693,15.8215099 11.4046934,15.8036654 L11.4046934,15.8036654 L11.38,15.784 L11.3832499,15.787214 L11.378,15.783 L11.374551,15.7803112 L11.359,15.767 L11.347434,15.757792 L11.347434,15.757792 L11.2928932,15.7071068 L8.29289322,12.7071068 L8.20970461,12.6128994 C7.90467972,12.2206082 7.93240926,11.6533772 8.29289322,11.2928932 C8.68341751,10.9023689 9.31658249,10.9023689 9.70710678,11.2928932 L9.70710678,11.2928932 L11,12.585 L11,9 L11.0067277,8.88337887 C11.0644928,8.38604019 11.4871642,8 12,8 Z"/>
</svg>

<svg xmlns="http://www.w3.org/2000/svg" viewBox="0 0 24 24">
  <path d="M12 1c3.52 0 6.37.71 8.55 2.17A1 1 0 0 1 21 4v8.91a9.23 9.23 0 0 1-4.97 8.2l-3.58 1.78a1 1 0 0 1-.9 0L7.97 21.1A9.23 9.23 0 0 1 3 12.9V4a1 1 0 0 1 .45-.83C5.63 1.7 8.48 1 12 1zm0 2c-2.85 0-5.15.5-6.9 1.5l-.1.05v8.36c0 2.6 1.43 5.07 3.64 6.28l.23.13L12 20.88l3.13-1.56A7.22 7.22 0 0 0 19 13.18l.01-.27V4.56l-.1-.06c-1.66-.94-3.81-1.45-6.45-1.5zm0 5a1 1 0 0 1 1 1v3.59l1.3-1.3.09-.08a1 1 0 0 1 1.32 1.5l-3 3-.08.07a3 3 0 0 1-.15.1l-.06.03-.05.02a.95.95 0 0 1-.22.06h-.13L12 16h-.09l-.06-.01a1.1 1.1 0 0 1-.22-.06l-.05-.02a1.04 1.04 0 0 1-.06-.03l-.04-.03a1.03 1.03 0 0 1-.08-.05l-.02-.02-.02-.01-.01-.01-.06-.05-3-3-.08-.1a1 1 0 0 1 1.5-1.32L11 12.6V8.88A1 1 0 0 1 12 8z"/>
</svg>
